
// var grainEnv;

// grainEnv = Env([0.000001, 1, 1, 0.0000001],
//   [bsplice, grainsize-bsplice-esplice, esplice], [\exp, \exp]);

// Library.put(\Granulation, \GrainEnvBuffer, 
//   Buffer.sendCollection(Server.default, grainEnv.discretize, 1)
// );
